dist/img/icons/Renovation.svg

<svg width="41" height="40" viewBox="0 0 41 40" fill="none" xmlns="http://www.w3.org/2000/svg">
<g clip-path="url(#clip0_202_43)">
<rect x="0.5" y="16.6666" width="23.3333" height="23.3333" fill="#7595FD"/>
<path d="M33 5.00004C31.8952 5.00093 30.8359 5.4402 30.0547 6.22141C29.2735 7.00262 28.8342 8.06191 28.8333 9.16671C28.8333 9.76171 28.9633 10.3267 29.19 10.8417L25.9317 14.5067C24.8248 13.7427 23.5116 13.3334 22.1667 13.3334C20.9333 13.3334 19.7933 13.6934 18.8017 14.2767L15.0117 10.4884L14.9733 10.5267C15.3 9.86338 15.5 9.12504 15.5 8.33338C15.5 7.34447 15.2068 6.37777 14.6573 5.55553C14.1079 4.73328 13.327 4.09242 12.4134 3.71398C11.4998 3.33554 10.4945 3.23652 9.52455 3.42945C8.55465 3.62238 7.66373 4.09858 6.96447 4.79784C6.26521 5.49711 5.789 6.38802 5.59608 7.35792C5.40315 8.32783 5.50217 9.33316 5.8806 10.2468C6.25904 11.1604 6.89991 11.9413 7.72215 12.4907C8.5444 13.0401 9.5111 13.3334 10.5 13.3334C11.2917 13.3334 12.0283 13.1334 12.6933 12.8067L12.655 12.845L16.445 16.6334C15.8327 17.6501 15.5063 18.8132 15.5 20C15.5 21.6617 16.1333 23.165 17.1417 24.335L12.8467 28.6284C12.3653 28.4357 11.8518 28.3356 11.3333 28.3334C9.03667 28.3334 7.16667 30.2017 7.16667 32.5C7.16667 34.7984 9.03667 36.6667 11.3333 36.6667C13.63 36.6667 15.5 34.7984 15.5 32.5C15.5 31.965 15.39 31.4567 15.205 30.985L19.935 26.255C20.6367 26.505 21.38 26.6667 22.1667 26.6667C25.8433 26.6667 28.8333 23.6767 28.8333 20C28.8333 18.94 28.5617 17.9517 28.12 17.06L31.6483 13.0884C32.075 13.235 32.525 13.3334 33 13.3334C35.2983 13.3334 37.1667 11.465 37.1667 9.16671C37.1667 6.86838 35.2983 5.00004 33 5.00004ZM22.1667 23.3334C20.3283 23.3334 18.8333 21.8384 18.8333 20C18.8333 18.1617 20.3283 16.6667 22.1667 16.6667C24.005 16.6667 25.5 18.1617 25.5 20C25.5 21.8384 24.005 23.3334 22.1667 23.3334Z" fill="white"/>
</g>
<defs>
<clipPath id="clip0_202_43">
<rect width="40" height="40" fill="white" transform="translate(0.5)"/>
</clipPath>
</defs>
</svg>

<svg width="41" height="40" fill="none" xmlns="http://www.w3.org/2000/svg"><g clip-path="url(#a)"><path fill="#7595FD" d="M.5 16.667h23.333V40H.5z"/><path d="M33 5a4.17 4.17 0 0 0-4.167 4.167c0 .595.13 1.16.357 1.675l-3.258 3.665a6.628 6.628 0 0 0-3.765-1.174c-1.234 0-2.374.36-3.365.944l-3.79-3.789-.039.039a4.943 4.943 0 0 0 .527-2.194 5 5 0 1 0-5 5c.792 0 1.528-.2 2.193-.526l-.038.038 3.79 3.788A6.593 6.593 0 0 0 15.5 20c0 1.662.633 3.165 1.642 4.335l-4.295 4.293a4.12 4.12 0 0 0-1.514-.295A4.171 4.171 0 0 0 7.167 32.5a4.171 4.171 0 0 0 4.166 4.167A4.171 4.171 0 0 0 15.5 32.5c0-.535-.11-1.043-.295-1.515l4.73-4.73c.702.25 1.445.412 2.232.412A6.673 6.673 0 0 0 28.833 20c0-1.06-.271-2.048-.713-2.94l3.528-3.972c.427.147.877.245 1.352.245a4.17 4.17 0 0 0 4.167-4.166A4.17 4.17 0 0 0 33 5ZM22.167 23.333A3.337 3.337 0 0 1 18.833 20a3.337 3.337 0 0 1 3.334-3.333A3.337 3.337 0 0 1 25.5 20a3.337 3.337 0 0 1-3.333 3.333Z" fill="#fff"/></g><defs><clipPath id="a"><path fill="#fff" transform="translate(.5)" d="M0 0h40v40H0z"/></clipPath></defs></svg>
